images/themes/sigpacgo/nodpi/ic_serial_port_receiver_black_24dp.svg

<!-- Uploaded to: SVG Repo, www.svgrepo.com, Transformed by: SVG Repo Mixer Tools -->
<svg xmlns="http://www.w3.org/2000/svg" xmlns:xlink="http://www.w3.org/1999/xlink" width="24" height="24" viewBox="0 0 24 24">
<path fill-rule="nonzero" fill="rgb(3.529412%, 14.117647%, 29.411765%)" fill-opacity="1" d="M 19.785156 7.804688 C 19.625 7.476562 19.34375 7.226562 19 7.101562 L 19 5.574219 C 18.996094 4.996094 18.847656 4.429688 18.566406 3.921875 C 17.941406 2.742188 16.699219 2.019531 15.367188 2.066406 C 14.03125 2.109375 12.839844 2.914062 12.296875 4.132812 C 12.101562 4.539062 12 4.988281 12.003906 5.441406 L 12 19.308594 C 12.007812 19.566406 11.964844 19.824219 11.875 20.066406 C 11.402344 21.234375 10.269531 21.996094 9.011719 22 C 7.671875 21.96875 6.503906 21.089844 6.101562 19.816406 C 6.03125 19.585938 5.996094 19.34375 6 19.105469 L 6 16.894531 C 6.332031 16.773438 6.605469 16.535156 6.773438 16.222656 L 8.734375 13.171875 C 8.910156 12.8125 9 12.414062 9 12.011719 L 9 4 L 8 4 L 8 1 L 3 1 L 3 4 L 2 4 L 2 12.015625 C 2.003906 12.4375 2.105469 12.851562 2.296875 13.226562 L 4.214844 16.195312 C 4.378906 16.519531 4.660156 16.769531 5 16.894531 L 5 19.144531 C 5.007812 19.664062 5.109375 20.175781 5.300781 20.65625 C 5.984375 22.089844 7.425781 23 9.011719 23 C 10.582031 22.992188 12.015625 22.089844 12.695312 20.671875 C 12.890625 20.195312 12.992188 19.683594 12.996094 19.171875 L 13 5.433594 C 13.003906 5.097656 13.085938 4.761719 13.238281 4.460938 C 13.652344 3.597656 14.523438 3.046875 15.480469 3.046875 C 16.4375 3.042969 17.3125 3.59375 17.726562 4.457031 C 17.90625 4.800781 18 5.179688 18 5.566406 L 18 7.101562 C 17.667969 7.222656 17.390625 7.460938 17.230469 7.777344 L 15.265625 10.828125 C 15.089844 11.1875 15 11.582031 15 11.984375 L 15 20 L 16 20 L 16 23 L 21 23 L 21 20 L 22 20 L 22 11.984375 C 21.996094 11.5625 21.894531 11.148438 21.703125 10.773438 Z M 4 2 L 7 2 L 7 4 L 4 4 Z M 3.164062 12.738281 C 3.058594 12.511719 3 12.265625 3 12.015625 L 3 5 L 8 5 L 8 12.015625 C 8 12.246094 7.953125 12.472656 7.863281 12.683594 L 5.886719 15.757812 C 5.808594 15.914062 5.644531 16.007812 5.46875 15.996094 C 5.292969 15.984375 5.140625 15.871094 5.082031 15.703125 Z M 20 22 L 17 22 L 17 20 L 20 20 Z M 21 19 L 16 19 L 16 11.984375 C 16 11.753906 16.046875 11.527344 16.136719 11.316406 L 18.113281 8.242188 C 18.191406 8.085938 18.355469 7.992188 18.53125 8.003906 C 18.707031 8.015625 18.859375 8.128906 18.917969 8.296875 L 20.835938 11.261719 C 20.941406 11.488281 21 11.734375 21 11.984375 Z M 21 19 "/>
</svg>

<!DOCTYPE svg PUBLIC "-//W3C//DTD SVG 1.1//EN" "http://www.w3.org/Graphics/SVG/1.1/DTD/svg11.dtd">
<!-- Uploaded to: SVG Repo, www.svgrepo.com, Transformed by: SVG Repo Mixer Tools -->
<svg width="800px" height="800px" viewBox="0 0 24 24" xmlns="http://www.w3.org/2000/svg" fill="#09244b">
<g id="SVGRepo_bgCarrier" stroke-width="0"/>
<g id="SVGRepo_tracerCarrier" stroke-linecap="round" stroke-linejoin="round"/>
<g id="SVGRepo_iconCarrier">
<path d="M19.786 7.806A1.412 1.412 0 0 0 19 7.1V5.576a3.491 3.491 0 0 0-.433-1.655 3.49 3.49 0 0 0-6.271.21 3.06 3.06 0 0 0-.294 1.311L12 19.307a2.021 2.021 0 0 1-.124.76A3.106 3.106 0 0 1 9.01 22a3.127 3.127 0 0 1-2.907-2.185 2.171 2.171 0 0 1-.102-.71v-2.209a1.433 1.433 0 0 0 .771-.672l1.963-3.051A2.68 2.68 0 0 0 9 12.013V4H8V1H3v3H2v8.014a2.693 2.693 0 0 0 .296 1.212l1.918 2.968a1.432 1.432 0 0 0 .786.702v2.25a4.207 4.207 0 0 0 .301 1.512A4.11 4.11 0 0 0 9.01 23a4.109 4.109 0 0 0 3.686-2.327 4.153 4.153 0 0 0 .302-1.503L13 5.434a2.171 2.171 0 0 1 .24-.972 2.486 2.486 0 0 1 4.486-.005A2.4 2.4 0 0 1 18 5.568v1.533a1.412 1.412 0 0 0-.771.675l-1.963 3.051A2.675 2.675 0 0 0 15 11.985V20h1v3h5v-3h1v-8.015a2.689 2.689 0 0 0-.296-1.21zM4 2h3v2H4zm-.834 10.737A1.674 1.674 0 0 1 3 12.014V5h5v7.014a1.71 1.71 0 0 1-.136.67l-1.976 3.073a.44.44 0 0 1-.805-.052zM20 22h-3v-2h3zm1-3h-5v-7.015a1.709 1.709 0 0 1 .136-.67l1.976-3.072a.44.44 0 0 1 .805.052l1.917 2.968a1.673 1.673 0 0 1 .166.722z"/>
<path fill="none" d="M0 0h24v24H0z"/>
</g>
</svg>
